images_sukapura_svg/framework/res/folder_32.svg

<svg height="32" viewBox="0 0 32 32" width="32" xmlns="http://www.w3.org/2000/svg" xmlns:xlink="http://www.w3.org/1999/xlink"><linearGradient id="a" gradientUnits="userSpaceOnUse" x1="11" x2="11" y1="12" y2="6"><stop offset="0" stop-color="#bdbdbd"/><stop offset=".33333334" stop-color="#f8f8f8"/><stop offset="1" stop-color="#f7fcf9"/></linearGradient><linearGradient id="b" gradientUnits="userSpaceOnUse" x1="15" x2="15" y1="27" y2="13"><stop offset="0" stop-color="#e1e1e1"/><stop offset=".35714287" stop-color="#f8f8f8"/><stop offset="1" stop-color="#fefefe"/></linearGradient><linearGradient id="c" gradientUnits="userSpaceOnUse" x1="6" x2="6" y1="28" y2="12"><stop offset="0" stop-color="#a7a7a7"/><stop offset="1" stop-color="#c5c5c5"/></linearGradient><linearGradient id="d" gradientUnits="userSpaceOnUse" x1="13" x2="13" y1="10" y2="13"><stop offset="0" stop-color="#fff"/><stop offset=".05588652" stop-color="#fff" stop-opacity=".272059"/><stop offset=".75" stop-color="#fff" stop-opacity=".040441"/><stop offset="1" stop-color="#fff" stop-opacity=".977941"/></linearGradient><path d="m7.5 6.5c-1.108 0-1 .6510253-1 1.4589844v.5410156h-1c-.554 0-1 .473875-1 1.0625v2.875c0 .588625.446 1.0625 1 1.0625h21c.554 0 1-.473875 1-1.0625v-2.875c0-.588625-.446-1.0625-1-1.0625h-2-9.419922c-.677075-.8774664-1.607705-2-2.580078-2z" fill="url(#a)" stroke="#c5c5c5"/><path d="m8.5 7.5c-1.108 0-1 .6510253-1 1.4589844v.5410156h-1c-.554 0-1-.088625-1 .5v1.4375c0 .588625-.554 1.0625 0 1.0625h21c.554 0 0-.473875 0-1.0625v-1.4375c0-.588625.054-.5-.5-.5h-2.5-8.919922c-.677075-.8774664-1.607705-2-2.580078-2z" fill="none" stroke="url(#d)"/><path d="m3.5 12.5h25c.554 0 1.045581.475642 1 1.0625l-1 12.875c-.04558.586858-.446 1.0625-1 1.0625h-23c-.554 0-.9544188-.475642-1-1.0625l-1-12.875c-.0455812-.586858.446-1.0625 1-1.0625z" fill="url(#b)" stroke="url(#c)"/></svg>

<?xml version="1.0" encoding="UTF-8" standalone="no"?>
<svg
   xmlns:dc="http://purl.org/dc/elements/1.1/"
   xmlns:cc="http://creativecommons.org/ns#"
   xmlns:rdf="http://www.w3.org/1999/02/22-rdf-syntax-ns#"
   xmlns:svg="http://www.w3.org/2000/svg"
   xmlns="http://www.w3.org/2000/svg"
   xmlns:xlink="http://www.w3.org/1999/xlink"
   xmlns:sodipodi="http://sodipodi.sourceforge.net/DTD/sodipodi-0.dtd"
   xmlns:inkscape="http://www.inkscape.org/namespaces/inkscape"
   height="32"
   viewBox="0 0 32 32"
   width="32"
   version="1.1"
   id="svg12"
   sodipodi:docname="folder_32.svg"
   inkscape:export-filename="/home/rizmut/Dokumen/Rizmut/Github/libreoffice-style-colibrex/images_colibrex/framework/res/folder_32.png"
   inkscape:export-xdpi="96"
   inkscape:export-ydpi="96"
   inkscape:version="0.92.3 (unknown)">
  <metadata
     id="metadata18">
    <rdf:RDF>
      <cc:Work
         rdf:about="">
        <dc:format>image/svg+xml</dc:format>
        <dc:type
           rdf:resource="http://purl.org/dc/dcmitype/StillImage" />
        <dc:title></dc:title>
      </cc:Work>
    </rdf:RDF>
  </metadata>
  <defs
     id="defs16">
    <linearGradient
       inkscape:collect="always"
       id="linearGradient886">
      <stop
         style="stop-color:#ffffff;stop-opacity:1;"
         offset="0"
         id="stop882" />
      <stop
         id="stop890"
         offset="0.05588652"
         style="stop-color:#ffffff;stop-opacity:0.27205881" />
      <stop
         style="stop-color:#ffffff;stop-opacity:0.04044118"
         offset="0.75"
         id="stop892" />
      <stop
         style="stop-color:#ffffff;stop-opacity:0.97794116"
         offset="1"
         id="stop884" />
    </linearGradient>
    <linearGradient
       inkscape:collect="always"
       id="linearGradient874">
      <stop
         style="stop-color:#a7a7a7;stop-opacity:1"
         offset="0"
         id="stop870" />
      <stop
         style="stop-color:#c5c5c5;stop-opacity:1"
         offset="1"
         id="stop872" />
    </linearGradient>
    <linearGradient
       id="linearGradient866"
       inkscape:collect="always">
      <stop
         id="stop862"
         offset="0"
         style="stop-color:#e1e1e1;stop-opacity:1;" />
      <stop
         style="stop-color:#f8f8f8;stop-opacity:1"
         offset="0.35714287"
         id="stop868" />
      <stop
         id="stop864"
         offset="1"
         style="stop-color:#fefefe;stop-opacity:1" />
    </linearGradient>
    <linearGradient
       inkscape:collect="always"
       id="linearGradient846">
      <stop
         style="stop-color:#bdbdbd;stop-opacity:1;"
         offset="0"
         id="stop842" />
      <stop
         id="stop850"
         offset="0.33333334"
         style="stop-color:#f8f8f8;stop-opacity:1" />
      <stop
         style="stop-color:#f7fcf9;stop-opacity:1"
         offset="1"
         id="stop844" />
    </linearGradient>
    <clipPath
       clipPathUnits="userSpaceOnUse"
       id="clipPath818">
      <circle
         style="opacity:1;fill:#0a84ff;fill-opacity:1;stroke:none;stroke-width:9.40416336;stroke-miterlimit:4;stroke-dasharray:none;stroke-opacity:1"
         id="circle820"
         cx="340.65686"
         cy="399.84625"
         r="47.020817" />
    </clipPath>
    <linearGradient
       inkscape:collect="always"
       xlink:href="#linearGradient846"
       id="linearGradient848"
       x1="11"
       y1="12"
       x2="11"
       y2="6"
       gradientUnits="userSpaceOnUse" />
    <linearGradient
       inkscape:collect="always"
       xlink:href="#linearGradient866"
       id="linearGradient849"
       x1="15"
       y1="27"
       x2="15"
       y2="13"
       gradientUnits="userSpaceOnUse" />
    <linearGradient
       inkscape:collect="always"
       xlink:href="#linearGradient874"
       id="linearGradient876"
       x1="6"
       y1="28"
       x2="6"
       y2="12"
       gradientUnits="userSpaceOnUse" />
    <linearGradient
       inkscape:collect="always"
       xlink:href="#linearGradient886"
       id="linearGradient888"
       x1="13"
       y1="10"
       x2="13"
       y2="13"
       gradientUnits="userSpaceOnUse" />
  </defs>
  <sodipodi:namedview
     pagecolor="#ffffff"
     bordercolor="#666666"
     borderopacity="1"
     objecttolerance="10"
     gridtolerance="10"
     guidetolerance="10"
     inkscape:pageopacity="0"
     inkscape:pageshadow="2"
     inkscape:window-width="1366"
     inkscape:window-height="706"
     id="namedview14"
     showgrid="true"
     inkscape:snap-global="true"
     inkscape:zoom="5.6568543"
     inkscape:cx="6.450385"
     inkscape:cy="13.536043"
     inkscape:window-x="0"
     inkscape:window-y="0"
     inkscape:window-maximized="1"
     inkscape:current-layer="svg12"
     inkscape:snap-smooth-nodes="true">
    <inkscape:grid
       type="xygrid"
       id="grid828"
       spacingx="0.5"
       spacingy="0.5"
       empspacing="2" />
  </sodipodi:namedview>
  <path
     style="opacity:1;fill:url(#linearGradient848);fill-opacity:1;stroke:#c5c5c5;stroke-width:1;stroke-miterlimit:4;stroke-dasharray:none;stroke-opacity:1"
     d="m 7.5,6.5 c -1.108,0 -1,0.6510253 -1,1.4589844 V 8.5 h -1 c -0.554,0 -1,0.473875 -1,1.0625 v 2.875 c 0,0.588625 0.446,1.0625 1,1.0625 h 21 c 0.554,0 1,-0.473875 1,-1.0625 V 9.5625 C 27.5,8.973875 27.054,8.5 26.5,8.5 h -2 -9.419922 C 14.403003,7.6225336 13.472373,6.5 12.5,6.5 Z"
     id="rect825"
     inkscape:connector-curvature="0"
     sodipodi:nodetypes="sscssssssssccss" />
  <path
     sodipodi:nodetypes="sscssssssssccss"
     inkscape:connector-curvature="0"
     id="path878"
     d="m 8.5,7.5 c -1.108,0 -1,0.6510253 -1,1.4589844 V 9.5 h -1 c -0.554,0 -1,-0.088625 -1,0.5 v 1.4375 c 0,0.588625 -0.554,1.0625 0,1.0625 h 21 c 0.554,0 0,-0.473875 0,-1.0625 V 10 C 26.5,9.411375 26.554,9.5 26,9.5 H 23.5 14.580078 C 13.903003,8.6225336 12.972373,7.5 12,7.5 Z"
     style="opacity:1;fill:none;fill-opacity:1;stroke:url(#linearGradient888);stroke-width:1;stroke-miterlimit:4;stroke-dasharray:none;stroke-opacity:1" />
  <path
     style="opacity:1;fill:url(#linearGradient849);fill-opacity:1;stroke:url(#linearGradient876);stroke-width:1;stroke-miterlimit:4;stroke-dasharray:none;stroke-opacity:1"
     d="m 3.5,12.5 h 25 c 0.554,0 1.045581,0.475642 1,1.0625 l -1,12.875 c -0.04558,0.586858 -0.446,1.0625 -1,1.0625 h -23 c -0.554,0 -0.9544188,-0.475642 -1,-1.0625 l -1,-12.875 C 2.4544188,12.975642 2.946,12.5 3.5,12.5 Z"
     id="rect836"
     inkscape:connector-curvature="0"
     sodipodi:nodetypes="sssssssss" />
</svg>
